;FLAVOR:Marlin
;TIME:29617
;Filament used: 24.367m
;Layer height: 0.2
;Generated with Cura_SteamEngine 3.4.1
M190 S65
M104 S215
M109 S215
M82 ;absolute extrusion mode
G21 ;metric values
G90 ;absolute positioning
M82 ;set extruder to absolute mode
M107 ;start with the fan off
G28 X0 Y0 ;move X/Y to min endstops
G28 Z0 ;move Z to min endstops
G1 Z15.0 F120 ;move the platform down 15mm
G92 E0 ;zero the extruded length
G1 F200 E3 ;extrude 3mm of feed stock
G92 E0 ;zero the extruded length again
G1 F120
M117 Printing...
G5
G92 E0
G1 F6000 E-6
;LAYER_COUNT:80
;LAYER:0
M106 S255
M204 S3000
M205 X10 Y10
G0 F3600 X29.082 Y45.898 Z0.2
M204 S1800
M205 X8 Y8
;TYPE:SKIRT
G1 F6000 E0
G1 F1500 X29.431 Y45.711 E0.01844
G1 X29.81 Y45.598 E0.03685
G1 X30.204 Y45.563 E0.05527
G1 X30.597 Y45.608 E0.07369
G1 X30.926 Y45.711 E0.08974
G1 X34.301 Y47.104 E0.25976
G1 X41.316 Y49.758 E0.609
G1 X44.752 Y50.942 E0.77823
G1 X51.883 Y53.171 E1.12612
G1 X55.421 Y54.163 E1.29722
G1 X62.695 Y55.978 E1.64631
G1 X66.272 Y56.757 E1.81677
G1 X73.569 Y58.127 E2.16249
G1 X80.913 Y59.21 E2.50816
G1 X88.332 Y60.012 E2.85563
G1 X95.714 Y60.517 E3.20017
G1 X103.136 Y60.735 E3.54592
G1 X110.56 Y60.663 E3.89163
G1 X118.004 Y60.301 E4.23866
G1 X125.375 Y59.65 E4.58322
G1 X132.742 Y58.711 E4.92903
G1 X140.072 Y57.481 E5.27512
G1 X147.361 Y55.964 E5.6218
G1 X150.923 Y55.113 E5.79233
G1 X154.538 Y54.174 E5.96624
G1 X161.687 Y52.093 E6.31295
G1 X168.731 Y49.739 E6.65878
G1 X175.697 Y47.105 E7.00556
G1 X179.076 Y45.713 E7.17573
G1 X179.455 Y45.6 E7.19414
G1 X179.849 Y45.565 E7.21256
G1 X180.242 Y45.61 E7.23098
G1 X180.618 Y45.734 E7.24942
G1 X180.91 Y45.894 E7.26492
G1 X181.087 Y46.012 E7.27482
G1 X181.392 Y46.264 E7.29325
G1 X181.641 Y46.571 E7.31165
G1 X181.823 Y46.922 E7.33006
G1 X181.93 Y47.303 E7.34849
G1 X181.959 Y47.697 E7.36689
G1 X181.928 Y47.995 E7.38084
G1 X181.859 Y48.373 E7.39873
G1 X181.749 Y48.753 E7.41715
G1 X181.624 Y48.991 E7.42967
G1 X181.651 Y49.016 E7.43138
G1 X181.886 Y49.334 E7.44979
G1 X182.052 Y49.693 E7.46821
G1 X182.143 Y50.077 E7.48659
G1 X182.16 Y50.334 E7.49858
G1 X182.16 Y162.466 E12.71992
G1 X182.12 Y162.859 E12.73831
G1 X182.002 Y163.237 E12.75675
G1 X181.811 Y163.583 E12.77515
G1 X181.586 Y163.852 E12.79148
G1 X181.352 Y164.086 E12.80689
G1 X181.046 Y164.336 E12.82529
G1 X180.695 Y164.519 E12.84372
G1 X180.315 Y164.629 E12.86214
G1 X179.966 Y164.66 E12.87846
G1 X30.034 Y164.66 E19.85992
G1 X29.641 Y164.62 E19.87831
G1 X29.263 Y164.502 E19.89675
G1 X28.917 Y164.311 E19.91516
G1 X28.648 Y164.086 E19.93149
G1 X28.414 Y163.852 E19.9469
G1 X28.164 Y163.546 E19.9653
G1 X27.981 Y163.195 E19.98373
G1 X27.871 Y162.815 E20.00215
G1 X27.84 Y162.466 E20.01846
G1 X27.84 Y50.333 E25.23985
G1 X27.88 Y49.94 E25.25824
G1 X27.998 Y49.562 E25.27668
G1 X28.189 Y49.216 E25.29508
G1 X28.376 Y48.997 E25.30849
G1 X28.242 Y48.734 E25.32224
G1 X28.139 Y48.368 E25.33994
G1 X28.071 Y47.99 E25.35782
G1 X28.041 Y47.596 E25.37622
G1 X28.09 Y47.203 E25.39466
G1 X28.217 Y46.829 E25.41306
G1 X28.417 Y46.488 E25.43146
G1 X28.681 Y46.193 E25.4499
G1 X28.904 Y46.018 E25.4631
G1 X29.082 Y45.898 E25.47309
M204 S3000
M205 X10 Y10
G0 F3600 X29.395 Y46.362
M204 S1800
M205 X8 Y8
G1 F1500 X29.693 Y46.21 E25.48867
G1 X30.018 Y46.132 E25.50423
G1 X30.352 Y46.134 E25.51979
G1 X30.712 Y46.229 E25.53712
G1 X34.097 Y47.626 E25.70764
G1 X41.099 Y50.275 E26.05623
G1 X44.611 Y51.485 E26.2292
G1 X51.701 Y53.701 E26.57509
G1 X55.302 Y54.712 E26.74925
G1 X62.545 Y56.519 E27.09685
G1 X66.16 Y57.305 E27.26912
G1 X73.484 Y58.68 E27.61611
G1 X80.85 Y59.767 E27.96282
G1 X88.256 Y60.567 E28.30968
G1 X95.711 Y61.077 E28.65762
G1 X103.125 Y61.295 E29.003
G1 X110.592 Y61.223 E29.35071
G1 X118.004 Y60.862 E29.69625
G1 X125.444 Y60.205 E30.04404
G1 X132.826 Y59.264 E30.39056
G1 X140.179 Y58.03 E30.73773
G1 X147.477 Y56.512 E31.08483
G1 X151.083 Y55.65 E31.25747
G1 X154.7 Y54.711 E31.43148
G1 X161.836 Y52.634 E31.77755
G1 X168.929 Y50.263 E32.12579
G1 X175.913 Y47.622 E32.47347
G1 X179.29 Y46.231 E32.64354
G1 X179.612 Y46.141 E32.65911
G1 X179.945 Y46.13 E32.67462
G1 X180.272 Y46.199 E32.69018
G1 X180.6 Y46.36 E32.7072
G1 X180.777 Y46.478 E32.7171
G1 X181.03 Y46.695 E32.73262
G1 X181.226 Y46.966 E32.74819
G1 X181.351 Y47.276 E32.76376
G1 X181.4 Y47.607 E32.77934
G1 X181.377 Y47.894 E32.79275
G1 X181.308 Y48.272 E32.81064
G1 X181.209 Y48.592 E32.82624
G1 X181.038 Y48.878 E32.84175
G1 X180.826 Y49.093 E32.85581
G1 X180.964 Y49.161 E32.86298
G1 X181.22 Y49.375 E32.87851
G1 X181.418 Y49.644 E32.89407
G1 X181.547 Y49.953 E32.90966
G1 X181.6 Y50.334 E32.92757
G1 X181.6 Y162.466 E38.1489
G1 X181.56 Y162.798 E38.16448
G1 X181.443 Y163.11 E38.17999
G1 X181.19 Y163.456 E38.19995
G1 X180.956 Y163.69 E38.21536
G1 X180.693 Y163.896 E38.23092
G1 X180.389 Y164.035 E38.24648
G1 X179.966 Y164.1 E38.26641
G1 X30.034 Y164.1 E45.24787
G1 X29.702 Y164.06 E45.26344
G1 X29.39 Y163.943 E45.27896
G1 X29.044 Y163.69 E45.29892
G1 X28.81 Y163.456 E45.31433
G1 X28.604 Y163.193 E45.32988
G1 X28.465 Y162.889 E45.34545
G1 X28.4 Y162.466 E45.36537
G1 X28.4 Y50.333 E50.58676
G1 X28.44 Y50.001 E50.60233
G1 X28.557 Y49.689 E50.61784
G1 X28.745 Y49.412 E50.63343
G1 X28.993 Y49.189 E50.64896
G1 X29.176 Y49.09 E50.65865
G1 X28.999 Y48.925 E50.66992
G1 X28.815 Y48.646 E50.68548
G1 X28.69 Y48.269 E50.70397
G1 X28.622 Y47.891 E50.72186
G1 X28.603 Y47.557 E50.73744
G1 X28.663 Y47.229 E50.75296
G1 X28.799 Y46.924 E50.76851
G1 X29.004 Y46.66 E50.78408
G1 X29.217 Y46.482 E50.797
G1 X29.395 Y46.362 E50.807
M204 S3000
M205 X10 Y10
G0 F3600 X29.708 Y46.826
M204 S1800
M205 X8 Y8
G1 F1500 X29.942 Y46.717 E50.81902
G1 X30.199 Y46.683 E50.83109
G1 X30.498 Y46.747 E50.84533
G1 X33.867 Y48.137 E51.01503
G1 X40.938 Y50.812 E51.36706
G1 X44.41 Y52.008 E51.53805
G1 X51.55 Y54.24 E51.88639
G1 X55.16 Y55.253 E52.06098
G1 X62.419 Y57.064 E52.40935
G1 X66.04 Y57.852 E52.5819
G1 X73.4 Y59.234 E52.9306
G1 X80.787 Y60.323 E53.27829
G1 X88.21 Y61.126 E53.62595
G1 X95.655 Y61.635 E53.97343
G1 X103.14 Y61.855 E54.32212
G1 X110.598 Y61.783 E54.66941
G1 X118.055 Y61.42 E55.01705
G1 X125.514 Y60.761 E55.36572
G1 X132.914 Y59.818 E55.71308
G1 X140.281 Y58.582 E56.06092
G1 X147.585 Y57.062 E56.40831
G1 X151.206 Y56.197 E56.58166
G1 X154.828 Y55.256 E56.75592
G1 X162.024 Y53.161 E57.1049
G1 X169.098 Y50.797 E57.45221
G1 X176.116 Y48.143 E57.80158
G1 X179.503 Y46.748 E57.97215
G1 X179.754 Y46.688 E57.98416
G1 X180.012 Y46.707 E57.99621
G1 X180.289 Y46.826 E58.01025
G1 X180.466 Y46.944 E58.02015
G1 X180.656 Y47.119 E58.03218
G1 X180.785 Y47.343 E58.04422
G1 X180.839 Y47.596 E58.05626
G1 X180.826 Y47.794 E58.0655
G1 X180.757 Y48.172 E58.08339
G1 X180.672 Y48.416 E58.09543
G1 X180.517 Y48.623 E58.10747
G1 X180.243 Y48.801 E58.12268
G1 X173.335 Y51.565 E58.46914
G1 X173.312 Y51.574 E58.47029
G1 X169.78 Y52.87 E58.64548
G1 X169.765 Y52.875 E58.64621
G1 X166.212 Y54.099 E58.8212
G1 X166.188 Y54.107 E58.82238
G1 X159.017 Y56.345 E59.17217
G1 X158.994 Y56.352 E59.17329
G1 X155.376 Y57.366 E59.34825
G1 X155.352 Y57.372 E59.3494
G1 X148.057 Y59.19 E59.69948
G1 X148.033 Y59.196 E59.70063
G1 X144.364 Y59.995 E59.87548
G1 X144.34 Y60 E59.87662
G1 X136.953 Y61.385 E60.22658
G1 X136.921 Y61.39 E60.22809
G1 X129.486 Y62.488 E60.57805
G1 X129.453 Y62.492 E60.5796
G1 X121.978 Y63.297 E60.92968
G1 X121.945 Y63.3 E60.93122
G1 X114.444 Y63.813 E61.28132
G1 X114.412 Y63.815 E61.28281
G1 X106.903 Y64.035 E61.63261
G1 X106.87 Y64.035 E61.63415
G1 X99.357 Y63.962 E61.984
G1 X99.324 Y63.961 E61.98554
G1 X91.814 Y63.594 E62.33565
G1 X91.781 Y63.592 E62.33719
G1 X84.297 Y62.933 E62.68703
G1 X84.265 Y62.929 E62.68853
G1 X76.81 Y61.979 E63.03847
G1 X76.777 Y61.974 E63.04002
G1 X69.362 Y60.73 E63.39012
G1 X69.33 Y60.724 E63.39164
G1 X61.975 Y59.196 E63.74143
G1 X61.951 Y59.191 E63.74257
G1 X58.291 Y58.317 E63.91779
G1 X58.275 Y58.313 E63.91856
G1 X54.638 Y57.37 E64.09351
G1 X54.614 Y57.364 E64.09466
G1 X47.397 Y55.265 E64.44464
G1 X47.366 Y55.255 E64.44616
G1 X40.241 Y52.876 E64.79593
G1 X40.21 Y52.865 E64.79747
G1 X33.179 Y50.209 E65.14744
G1 X33.156 Y50.2 E65.14859
G1 X29.748 Y48.798 E65.32018
G1 X29.527 Y48.664 E65.33222
G1 X29.358 Y48.469 E65.34423
G1 X29.241 Y48.17 E65.35918
G1 X29.173 Y47.792 E65.37707
G1 X29.167 Y47.533 E65.38913
G1 X29.24 Y47.285 E65.40117
G1 X29.385 Y47.071 E65.41321
G1 X29.53 Y46.946 E65.42212
G1 X29.708 Y46.826 E65.43212
M204 S3000
M205 X10 Y10
G0 F3600 X30.021 Y47.291
M204 S1800
M205 X8 Y8
G1 F1500 X30.162 Y47.243 E65.43905
G1 X30.285 Y47.264 E65.44486
G1 X33.672 Y48.662 E65.61548
G1 X40.734 Y51.334 E65.96707
G1 X44.25 Y52.545 E66.14023
G1 X51.383 Y54.775 E66.48822
G1 X55.009 Y55.792 E66.66358
G1 X62.3 Y57.611 E67.01349
G1 X65.938 Y58.403 E67.18685
G1 X73.293 Y59.784 E67.53532
G1 X80.716 Y60.879 E67.8847
G1 X88.163 Y61.684 E68.23349
G1 X95.633 Y62.195 E68.58214
G1 X103.128 Y62.415 E68.93128
G1 X110.608 Y62.343 E69.2796
G1 X118.105 Y61.978 E69.62911
G1 X125.558 Y61.32 E69.9775
G1 X132.998 Y60.371 E70.32674
G1 X140.383 Y59.132 E70.67543
G1 X147.723 Y57.605 E71.02452
G1 X151.338 Y56.741 E71.1976
G1 X154.985 Y55.794 E71.37305
G1 X162.178 Y53.7 E71.72189
G1 X169.291 Y51.323 E72.0711
G1 X176.319 Y48.665 E72.42098
G1 X179.716 Y47.266 E72.59205
G1 X179.864 Y47.248 E72.59899
G1 X179.978 Y47.292 E72.60468
G1 X180.155 Y47.41 E72.61458
G1 X180.253 Y47.522 E72.62151
G1 X180.275 Y47.693 E72.62954
G1 X180.206 Y48.071 E72.64743
G1 X180.142 Y48.205 E72.65435
G1 X180.035 Y48.281 E72.66046
G1 X173.127 Y51.045 E73.00692
G1 X173.119 Y51.048 E73.00732
G1 X169.587 Y52.344 E73.1825
G1 X169.582 Y52.346 E73.18275
G1 X166.029 Y53.57 E73.35774
G1 X166.021 Y53.572 E73.35812
G1 X158.85 Y55.81 E73.70792
G1 X158.843 Y55.813 E73.70827
G1 X155.225 Y56.827 E73.88323
G1 X155.217 Y56.829 E73.88362
G1 X147.922 Y58.647 E74.23369
G1 X147.914 Y58.649 E74.23408
G1 X144.245 Y59.448 E74.40892
G1 X144.237 Y59.449 E74.4093
G1 X136.85 Y60.834 E74.75926
G1 X136.839 Y60.836 E74.75978
G1 X129.404 Y61.934 E75.10974
G1 X129.393 Y61.935 E75.11026
G1 X121.918 Y62.74 E75.46034
G1 X121.907 Y62.741 E75.46085
G1 X114.406 Y63.254 E75.81094
G1 X114.395 Y63.255 E75.81146
G1 X106.886 Y63.475 E76.16126
G1 X106.875 Y63.475 E76.16177
G1 X99.362 Y63.402 E76.51163
G1 X99.351 Y63.402 E76.51214
G1 X91.841 Y63.035 E76.86225
G1 X91.83 Y63.034 E76.86277
G1 X84.346 Y62.375 E77.2126
G1 X84.336 Y62.374 E77.21307
G1 X76.881 Y61.424 E77.56301
G1 X76.87 Y61.422 E77.56353
G1 X69.455 Y60.178 E77.91363
G1 X69.444 Y60.176 E77.91415
G1 X62.089 Y58.648 E78.26394
G1 X62.081 Y58.646 E78.26433
G1 X58.421 Y57.772 E78.43955
G1 X58.416 Y57.771 E78.43978
G1 X54.779 Y56.828 E78.61474
G1 X54.771 Y56.826 E78.61512
G1 X47.554 Y54.727 E78.9651
G1 X47.543 Y54.724 E78.96563
G1 X40.418 Y52.345 E79.3154
G1 X40.408 Y52.341 E79.31591
G1 X33.377 Y49.685 E79.66588
G1 X33.369 Y49.682 E79.66628
G1 X29.961 Y48.28 E79.83787
G1 X29.844 Y48.189 E79.84477
G1 X29.792 Y48.071 E79.85078
G1 X29.724 Y47.693 E79.86866
G1 X29.738 Y47.545 E79.87558
G1 X29.843 Y47.411 E79.88351
G1 X30.021 Y47.291 E79.89351
M204 S3000
M205 X10 Y10
G1 F6000 E73.89351
G0 F3600 X29.807 Y46.972
G0 X29.34 Y47.292
G0 X29.338 Y48.039
G0 X29.778 Y49.493
M204 S1800
M205 X8 Y8
G1 F6000 E79.89351
G1 F1500 X30.111 Y49.553 E79.90926
G1 X36.451 Y52.083 E80.22712
G1 X40.083 Y53.416 E80.40727
G1 X47.209 Y55.793 E80.75706
G1 X50.845 Y56.889 E80.93389
G1 X58.168 Y58.863 E81.28705
G1 X65.499 Y60.538 E81.63721
G1 X72.956 Y61.937 E81.9905
G1 X80.443 Y63.042 E82.3429
G1 X87.963 Y63.854 E82.6951
G1 X95.509 Y64.371 E83.0473
G1 X103.095 Y64.595 E83.40069
G1 X110.653 Y64.522 E83.75263
G1 X118.212 Y64.153 E84.10503
G1 X125.768 Y63.488 E84.45823
G1 X133.269 Y62.533 E84.81033
G1 X140.733 Y61.284 E85.16272
G1 X148.134 Y59.747 E85.51469
G1 X151.871 Y58.853 E85.69361
G1 X159.18 Y56.881 E86.04612
G1 X166.409 Y54.624 E86.39876
G1 X173.539 Y52.087 E86.75115
G1 X179.889 Y49.554 E87.06949
G1 X180.141 Y49.496 E87.08153
G1 X180.398 Y49.518 E87.09354
G1 X180.637 Y49.617 E87.10559
G1 X180.834 Y49.784 E87.11761
G1 X180.972 Y50.002 E87.12963
G1 X181.04 Y50.334 E87.14541
G1 X181.04 Y162.466 E92.36674
G1 X181 Y162.721 E92.37876
G1 X180.885 Y162.953 E92.39082
G1 X180.794 Y163.06 E92.39736
G1 X180.56 Y163.294 E92.41277
G1 X180.351 Y163.446 E92.4248
G1 X180.106 Y163.528 E92.43683
G1 X179.966 Y163.54 E92.44337
G1 X30.034 Y163.54 E99.42484
G1 X29.779 Y163.5 E99.43686
G1 X29.547 Y163.385 E99.44891
G1 X29.44 Y163.294 E99.45545
G1 X29.206 Y163.06 E99.47086
G1 X29.054 Y162.851 E99.4829
G1 X28.972 Y162.606 E99.49493
G1 X28.96 Y162.466 E99.50147
G1 X28.96 Y50.333 E104.72285
G1 X29 Y50.078 E104.73487
G1 X29.115 Y49.846 E104.74693
G1 X29.296 Y49.661 E104.75898
G1 X29.524 Y49.54 E104.771
G1 X29.778 Y49.493 E104.78303
M204 S3000
M205 X10 Y10
G0 F3600 X29.811 Y50.053
M204 S1800
M205 X8 Y8
G1 F1500 X29.904 Y50.073 E104.78746
G1 X36.258 Y52.609 E105.10602
G1 X39.893 Y53.943 E105.28632
G1 X47.032 Y56.324 E105.63674
G1 X50.707 Y57.432 E105.81547
G1 X58.028 Y59.406 E106.16854
G1 X65.395 Y61.089 E106.52042
G1 X72.849 Y62.487 E106.87356
G1 X80.372 Y63.598 E107.22766
G1 X87.916 Y64.412 E107.58098
G1 X95.487 Y64.931 E107.93435
G1 X103.083 Y65.155 E108.2882
G1 X110.663 Y65.082 E108.64118
G1 X118.262 Y64.711 E108.99544
G1 X125.812 Y64.047 E109.34836
G1 X133.353 Y63.086 E109.70234
G1 X140.835 Y61.834 E110.05557
G1 X148.273 Y60.29 E110.4093
G1 X152.004 Y59.397 E110.58794
G1 X159.342 Y57.418 E110.94183
G1 X166.574 Y55.159 E111.29463
G1 X173.74 Y52.609 E111.64881
G1 X180.096 Y50.074 E111.96744
G1 X180.244 Y50.057 E111.97438
G1 X180.379 Y50.119 E111.9813
G1 X180.464 Y50.24 E111.98818
G1 X180.48 Y50.334 E111.99262
G1 X180.48 Y162.466 E117.21396
G1 X180.398 Y162.664 E117.22394
G1 X180.164 Y162.898 E117.23935
G1 X179.966 Y162.98 E117.24932
G1 X30.034 Y162.98 E124.23079
G1 X29.836 Y162.898 E124.24077
G1 X29.602 Y162.664 E124.25617
G1 X29.52 Y162.466 E124.26615
G1 X29.52 Y50.333 E129.48754
G1 X29.559 Y50.19 E129.49444
G1 X29.666 Y50.087 E129.50135
G1 X29.811 Y50.053 E129.50829
M204 S3000
M205 X10 Y10
G0 F3600 X30.08 Y50.751
M204 S1800
M205 X8 Y8
;TYPE:SUPPORT
G1 F1500 X32.561 Y51.771 E129.6332
G1 X36.106 Y53.15 E129.81032
G1 X39.683 Y54.461 E129.98771
G1 X43.282 Y55.702 E130.16498
G1 X46.903 Y56.871 E130.34216
G1 X50.551 Y57.97 E130.51956
G1 X54.216 Y58.996 E130.69678
G1 X57.898 Y59.951 E130.8739
G1 X61.607 Y60.836 E131.05146
G1 X65.323 Y61.646 E131.22856
G1 X69.059 Y62.383 E131.40587
G1 X72.802 Y63.048 E131.58289
G1 X76.576 Y63.643 E131.76079
G1 X80.291 Y64.152 E131.9354
G1 X84.08 Y64.6 E132.11306
G1 X87.865 Y64.97 E132.29014
G1 X91.659 Y65.267 E132.46735
G1 X95.464 Y65.491 E132.64483
G1 X99.264 Y65.64 E132.82191
G1 X103.075 Y65.715 E132.9994
G1 X106.925 Y65.715 E133.17867
G1 X110.734 Y65.64 E133.35607
G1 X114.534 Y65.491 E133.53315
G1 X118.339 Y65.267 E133.71063
G1 X122.133 Y64.97 E133.88784
G1 X125.917 Y64.599 E134.06488
G1 X129.707 Y64.153 E134.24258
G1 X133.472 Y63.635 E134.41955
G1 X137.236 Y63.041 E134.59698
G1 X140.986 Y62.375 E134.77433
G1 X144.673 Y61.645 E134.94934
G1 X148.391 Y60.837 E135.12651
G1 X152.102 Y59.95 E135.30418
G1 X155.781 Y58.996 E135.48115
G1 X159.448 Y57.97 E135.65846
G1 X163.096 Y56.871 E135.83587
G1 X166.713 Y55.703 E136.01286
G1 X170.315 Y54.462 E136.19026
G1 X173.89 Y53.151 E136.36756
G1 X177.437 Y51.772 E136.54477
G1 X179.92 Y50.751 E136.66978
G1 X179.92 Y162.35 E141.8663
G1 X179.85 Y162.42 E141.87091
G1 X30.15 Y162.42 E148.84157
G1 X30.08 Y162.35 E148.84618
G1 X30.08 Y50.751 E154.04269
M204 S3000
M205 X10 Y10
G0 F3600 X30.3 Y57.111
M204 S1800
M205 X8 Y8
